X:2961
T:Killa bukk, killa blakk
C:anon.
O:Norway
R:B\aansull, lullaby
Z:Transcribed by Frank Nordberg - http://www.musicaviva.com
F:http://abc.musicaviva.com/tunes/norway/killa-bukk/killa-bukk-1.abc
M:2/4
L:1/8
K:Fm
FFc2|GAF2|FFcB|GAF2|
w:Kil-la bukk, kil-la blakk, kil-la li-ten ne-ve-tapp.
G2c2|G2A2|F2c2|G2A2|F2cc|
w:Ro-sa, Dok-ka, Nyk-la, Sok-ka. Stor-spe-na,
G2A2|FFHc2|\
M:3/4
L:1/8
GA cB AG|F4HF2|]
w:Spjau-till, Fa-ger-leik, Spel-le-man-nen bort-i fjel-lom.
W:
W:Killa bukk, killa blakk,
W:killa liten nevetapp.
W:Rosa, Dokka, Nykla, Sokka.
W:Storspena, Spjautill, Fagerleik,
W:Spellemannen borti fjellom.
W:
W:
W:  From Musica Viva - http://www.musicaviva.com
W:  the Internet center for free sheet music downloads.

